assets/icons/charger_question.svg

<svg width="25" height="25" viewBox="0 0 25 25" fill="none" xmlns="http://www.w3.org/2000/svg">
<g yggColor="charger_question">
<path yggColor="iconDefault" fill-rule="evenodd" clip-rule="evenodd" d="M17.5416 2.00439C15.7163 2.00439 14.1392 3.06762 13.396 4.60856H11.4583C11.1269 4.60856 10.8583 4.87719 10.8583 5.20856V6.17106H5.20831C2.57576 6.17106 0.44165 8.30517 0.44165 10.9377C0.44165 13.5703 2.57576 15.7044 5.20832 15.7044H11.4583C11.7897 15.7044 12.0583 15.4358 12.0583 15.1044C12.0583 14.773 11.7897 14.5044 11.4583 14.5044H5.20832C3.2385 14.5044 1.64165 12.9075 1.64165 10.9377C1.64165 8.96791 3.2385 7.37106 5.20831 7.37106H10.8583V8.33356C10.8583 8.66493 11.1269 8.93356 11.4583 8.93356H13.396C14.1392 10.4745 15.7163 11.5377 17.5417 11.5377H20.8333C21.1647 11.5377 21.4333 11.2691 21.4333 10.9377V9.45439H21.875C22.2064 9.45439 22.475 9.18577 22.475 8.85439C22.475 8.52302 22.2064 8.25439 21.875 8.25439H21.4333V5.28773H23.4375C23.7689 5.28773 24.0375 5.0191 24.0375 4.68773C24.0375 4.35636 23.7689 4.08773 23.4375 4.08773H21.4333V2.60439C21.4333 2.27302 21.1647 2.00439 20.8333 2.00439H17.5416ZM14.1417 6.93773V6.60439C14.1417 4.72663 15.6639 3.20439 17.5416 3.20439H20.2333V4.68773V8.85439V10.3377H17.5417C15.6639 10.3377 14.1417 8.81549 14.1417 6.93773ZM12.0583 5.80856H12.9417V6.60439V6.93773V7.73356H12.0583V6.77106V5.80856ZM6.24998 21.7961C5.91861 21.7961 5.64998 22.0647 5.64998 22.3961C5.64998 22.7274 5.91861 22.9961 6.24998 22.9961H12.5C12.8314 22.9961 13.1 22.7274 13.1 22.3961C13.1 22.0647 12.8314 21.7961 12.5 21.7961H6.24998ZM24.0631 9.32756C23.8189 9.57169 23.4232 9.57169 23.1792 9.32756C22.935 9.08356 22.935 8.6878 23.1792 8.44372C23.4232 8.19963 23.8189 8.19963 24.0631 8.44372C24.3071 8.6878 24.3071 9.08356 24.0631 9.32756ZM17.7083 13.1002C15.1632 13.1002 13.1 15.1635 13.1 17.7086C13.1 20.2537 15.1632 22.3169 17.7083 22.3169C20.2534 22.3169 22.3167 20.2537 22.3167 17.7086C22.3167 15.1635 20.2534 13.1002 17.7083 13.1002ZM11.9 17.7086C11.9 14.5007 14.5005 11.9002 17.7083 11.9002C20.9162 11.9002 23.5167 14.5007 23.5167 17.7086C23.5167 20.9164 20.9162 23.5169 17.7083 23.5169C14.5005 23.5169 11.9 20.9164 11.9 17.7086ZM17.7083 15.9411C17.2552 15.9411 16.8879 16.3085 16.8879 16.7616C16.8879 17.093 16.6192 17.3616 16.2879 17.3616C15.9565 17.3616 15.6879 17.093 15.6879 16.7616C15.6879 15.6457 16.5925 14.7411 17.7083 14.7411C18.8242 14.7411 19.7288 15.6457 19.7288 16.7616C19.7288 17.6685 19.1312 18.4359 18.3083 18.6915V19.129C18.3083 19.4604 18.0397 19.729 17.7083 19.729C17.3769 19.729 17.1083 19.4604 17.1083 19.129V18.182C17.1083 17.8507 17.3769 17.582 17.7083 17.582C18.1614 17.582 18.5288 17.2147 18.5288 16.7616C18.5288 16.3085 18.1614 15.9411 17.7083 15.9411ZM17.7083 20.423C18.0397 20.423 18.3083 20.6916 18.3083 21.023V21.1177C18.3083 21.449 18.0397 21.7177 17.7083 21.7177C17.3769 21.7177 17.1083 21.449 17.1083 21.1177V21.023C17.1083 20.6916 17.3769 20.423 17.7083 20.423Z" fill="#18303F"/>
</g>
</svg>

<svg width="25" height="25" viewBox="0 0 25 25" fill="none"><g id="charger_question"><path fill-rule="evenodd" clip-rule="evenodd" d="M17.542 2.004a4.6 4.6 0 0 0-4.146 2.605h-1.938a.6.6 0 0 0-.6.6v.962h-5.65a4.767 4.767 0 1 0 0 9.533h6.25a.6.6 0 1 0 0-1.2h-6.25a3.567 3.567 0 0 1 0-7.133h5.65v.963a.6.6 0 0 0 .6.6h1.938a4.6 4.6 0 0 0 4.146 2.604h3.291a.6.6 0 0 0 .6-.6V9.454h.442a.6.6 0 1 0 0-1.2h-.442V5.288h2.005a.6.6 0 1 0 0-1.2h-2.005V2.604a.6.6 0 0 0-.6-.6h-3.291Zm-3.4 4.934v-.334a3.4 3.4 0 0 1 3.4-3.4h2.691v7.134h-2.691a3.4 3.4 0 0 1-3.4-3.4Zm-2.084-1.13h.884V7.735h-.884V5.809ZM6.25 21.797a.6.6 0 1 0 0 1.2h6.25a.6.6 0 0 0 0-1.2H6.25ZM24.063 9.328a.625.625 0 1 1-.884-.884.625.625 0 0 1 .884.884ZM17.708 13.1a4.608 4.608 0 1 0 0 9.217 4.608 4.608 0 0 0 0-9.217ZM11.9 17.71a5.808 5.808 0 1 1 11.617 0 5.808 5.808 0 0 1-11.617 0Zm5.808-1.768a.82.82 0 0 0-.82.82.6.6 0 0 1-1.2 0 2.02 2.02 0 1 1 2.62 1.93v.438a.6.6 0 1 1-1.2 0v-.947a.6.6 0 0 1 .6-.6.82.82 0 1 0 0-1.64Zm0 4.482a.6.6 0 0 1 .6.6v.095a.6.6 0 0 1-1.2 0v-.095a.6.6 0 0 1 .6-.6Z" fill="#18303F" yggColor="iconDefault"/></g></svg>
